X:55
T:Lady Danby’s Minuet. BC.55
M:3/4
L:1/8
Q:1/4=120
S:Benjamin Cooke MS.circa 1770, F.Kidson Coll.
R:.Minuet
O:England
A:Uncertain, probably northern
N:This piece is hastily written with a number of errors;
N:triplets not marked, an extra d crotchet in bar 7 of the B music.
Z:vmp.John Bagnall
K:G
((3def)|:g2 g2 g2|”^NB”(3gab g4|af d2 c2|\
c2 B4|db b2 b2|ba-ag-gf|!
(db a2)a2|ag-gf-fe|Ag g2 g2|((3fga) ^c2 e2|\
((3bag) f2 e2|d6:|!
|:d2 d2 d2|”^NB”((3abc’) b4|af d2 c2|c2 B4|\
Ae e2 e2|ed-dc-cB|!
G2d2 “^NB” dd|dc-c(cB)A|Dc c2 c2|\
((3Bcd) F2 G2|((3edc) B2 A2|G6:|
W:Corrected, see notes

